!!!!SEGMENT: pl-cz--i-155--001-002_anonim--partita-b-menuetto.krn
!!!cenid: 18xx:2495
!!!COM: Anonim
!!!COM-rismid: pe30004985
!!!CDT:
!!!CNT:
!!!OPR: Partita B
!!!OTL: Menuetto
!!!OMV: 002
!!!PDT:
!!!AGN: Secular; Partita
!!!SMS-siglum: PL-CZ
!!!SMS-shelfmark: I-155
!!!SMS-shelfwork: 001-002 M
!!!SMS-variant:
!!!SMS-altvar:
!!!NIFC-rismid: 1001012507
!!!URL-scan: http://repozytorium.nifc.pl/skany/pl-cz-nut--i-155
!!!ONB-nifc: UWAGA: Parthia I (001), części: 1. Adagio, 2. Menuetto, 3. Adagio, 4. Allegro presto. Uwaga: 5 partii
!!!key:
**kern	**kern	**kern	**kern	**kern	**dynam
*part5	*part4	*part3	*part2	*part1	*part1
*staff5	*staff4	*staff3	*staff2	*staff1	*
*Icor	*Icor	*Ifagot	*Iclars	*Iempty	*
*I"Corno Secondo	*I"Corno Primo:	*I"Fagotto	*I"Clarinetto Secondo	*I"Clainetto Primo	*
*I'cor II	*I'cor I	*I'fag	*I'cl II	*I'cl I	*
*clefG2	*clefG2	*clefF4	*clefG2	*clefG2	*
*ITrd1c2	*ITrd1c2	*	*ITrd1c2	*ITrd1c2	*
*k[b-e-]	*k[b-e-]	*k[b-e-]	*k[b-e-]	*k[b-e-]	*
*	*	*B-:	*	*	*
*>[A,A,B,B,C,C,D,D,A,A,B,B]	*>[A,A,B,B,C,C,D,D,A,A,B,B]	*>[A,A,B,B,C,C,D,D,A,A,B,B]	*>[A,A,B,B,C,C,D,D,A,A,B,B]	*>[A,A,B,B,C,C,D,D,A,A,B,B]	*
*M3/4	*M3/4	*M3/4	*M3/4	*M3/4	*
=1	=1	=1	=1	=1	=1
*>A	*>A	*>A	*>A	*>A	*
*all\right	*all\right	*all\right	*all\right	*all\right	*
*	*	*	*	*2\right	*
!	!	!	!	!LO:TX:a:i:t=Men&colon;	!
!LO:TX:a:i:t=Men&colon;	!LO:N:vis=0	!LO:TX:a:i:t=Menuetto	!LO:TX:a:i:t=Menuetto	!	!
2.B-/	1.r	4r	2.B-/	2.b-\	.
.	.	4d\	.	.	.
.	.	4B-\	.	.	.
=2	=2	=2	=2	=2	=2
2.F/	.	4A\	2.c/	2.cc\	.
.	.	4G\	.	.	.
.	.	4F\	.	.	.
=3	=3	=3	=3	=3	=3
4B-/	4r	4B-\	4d/	4dd\	.
4r	4r	4G\	8d/L	8dd\L	.
.	.	.	8f/	8ff\	.
4cc\	4cc\	4c\	8eX/	8eeX\	.
.	.	.	8g/J	8gg\J	.
=4	=4	=4	=4	=4	=4
4cc\	4cc\	4F\	4f/	4ff\	.
4r	4r	4r	4r	4r	.
4r	4r	4r	4r	4r	.
=5	=5	=5	=5	=5	=5
!	!	!	!	!	!
*	*	*	*2\right	*	*
*	*	*2\right	*	*	*
.	.	.	.	16qqff#X/	.
!LO:N:vis=0	!LO:N:vis=0	!	!	!	!
1.r	1.r	2e-\	2b-\	4gg\	.
.	.	.	.	4gg\	.
.	.	4r	4r	8ee-\L	.
.	.	.	.	8cc\J	.
=6	=6	=6	=6	=6	=6
.	.	.	.	16qqeeX/	.
.	.	2d\	2b-\	4ff\	.
.	.	.	.	4ff\	.
.	.	4r	4r	8dd\L	.
.	.	.	.	8b-\J	.
!	!	!LO:LB:g=original	!	!LO:LB:g=original	!
=7	=7	=7	=7	=7	=7
4r	4r	4r	4r	4f/	.
4r	4cc\	4A\	4cc\	8ee-\L	.
.	.	.	.	8cc\	.
4d/	4b-\	4B-\	4b-\	8dd\	.
.	.	.	.	8b-\J	.
=8	=8	=8	=8	=8	=8
*	*2\right	*	*	*	*
!	!	!	!	!	!
2d/	2b-\	4f\	2b-\	2dd\	.
.	.	4c\	.	.	.
!	!	!LO:TX:t=P:problem:jakaś ósemka pod pięciolinią	!LO:TX:t=P:problem:jakaś ósemka pod pięciolinią	!LO:TX:t=P:problem:jakaś ósemka pod pięciolinią	!
4f/	4cc\	4F\	4a\	4cc\	.
!LO:LB:g=original	!	!	!LO:LB:g=original	!	!
=9:|!|:	=9:|!|:	=9:|!|:	=9:|!|:	=9:|!|:	=9:|!|:
*>B	*>B	*>B	*>B	*>B	*
!	!LO:TX:a:t=1	!	!	!	!
2.r	2.r	2.r	2.r	8eeX\L	.
.	.	.	.	8ff\	.
.	.	.	.	8gg\	.
.	.	.	.	8ff\	.
.	.	.	.	8ee\	.
.	.	.	.	8ff\J	.
=10	=10	=10	=10	=10	=10
8.f/L	8.cc\L	4A\	2.ee-\	2ccc\	.
16f/Jk	16cc\Jk	.	.	.	.
*tremolo	*tremolo	*	*	*	*
8f/L	8cc\L	4A\	.	.	.
8f/	8cc\	.	.	.	.
8f/	8cc\	4A\	.	8aa\L	.
8f/J	8cc\J	.	.	8ff\J	.
*Xtremolo	*Xtremolo	*	*	*	*
!	!LO:LB:g=original	!	!	!	!
=11	=11	=11	=11	=11	=11
4d/	4b-\	4B-\	4dd\	8bb-\	.
.	.	.	.	8r	.
.	.	.	.	8qqeeX/	.
4r	4r	4r	4r	4ff\	.
4r	4r	4r	4r	4ff\	.
=12	=12	=12	=12	=12	=12
8.f/L	8.cc\L	4A\	2.ee-\	2ccc\	.
16f/Jk	16cc\Jk	.	.	.	.
*tremolo	*tremolo	*	*	*	*
8f/L	8cc\L	4A\	.	.	.
8f/	8cc\	.	.	.	.
8f/	8cc\	4A\	.	8aa\L	.
8f/J	8cc\J	.	.	8ff\J	.
*Xtremolo	*Xtremolo	*	*	*	*
!	!	!	!	!LO:LB:g=original	!
=13	=13	=13	=13	=13	=13
4d/	4b-\	4B-\	4dd\	4bb-\	.
4r	4r	4r	4r	4r	.
4r	4r	4r	4r	4r	.
=14	=14	=14	=14	=14	=14
.	.	.	.	16qqff#X/	.
!LO:N:vis=0	!LO:N:vis=0	!	!	!	!
1.r	1.r	2e-\	2b-\	4gg\	.
.	.	.	.	4gg\	.
.	.	4r	4r	8ee-\L	.
.	.	.	.	8cc\J	.
!	!	!LO:LB:g=original	!	!	!
=15	=15	=15	=15	=15	=15
.	.	.	.	16qqeeX/	.
.	.	2d\	2b-\	4ff\	.
.	.	.	.	4ff\	.
.	.	4r	4r	8dd\L	.
.	.	.	.	8b-\J	.
=16	=16	=16	=16	=16	=16
4d/	4cc\	4F\	4e-/	8cc\L	.
.	.	.	.	8ee-X\	.
4r	4r	4r	4r	8dd\	.
.	.	.	.	8b-\	.
4f/	4cc\	4FF/	4c/	8cc\	.
.	.	.	.	8a\J	.
=17	=17	=17	=17	=17	=17
4d/	4b-\	4BB-/	4d/	8b-\	.
.	.	.	.	8r	.
4r	4r	4r	4r	8b-\	.
.	.	.	.	8r	.
4r	4r	4r	4r	8b-\	.
.	.	.	.	8r	.
!LO:LB:g=original	!	!	!	!	!
=18	=18	=18	=18	=18	=18
4f/	4cc\	4FF/	4e-/	8cc\L	.
.	.	.	.	8ee-\	.
4r	4r	4r	4r	8dd\	.
.	.	.	.	8b-\	.
4f/	4cc\	4F\	4c/	8cc\	.
.	.	.	.	8a\J	.
!	!	!	!LO:LB:g=original	!LO:LB:g=original	!
=19	=19	=19	=19	=19	=19
2d/	2b-\	4B-\	2d/	2b-\	.
.	.	4F\	.	.	.
4ryy	4r	4BB-/	4r	4ryy	.
!	!LO:LB:g=original	!	!	!	!
=20:|!|:	=20:|!|:	=20:|!|:	=20:|!|:	=20:|!|:	=20:|!|:
*>C	*>C	*>C	*>C	*>C	*
!LO:TX:a:i:t=Trio	!LO:TX:a:i:B:t=Trio	!LO:TX:a:i:B:t=Trio	!LO:TX:a:i:B:t=Trio	!LO:TX:a:i:B:t=Trio	!
.	.	.	.	16qqeeX/	.
!LO:N:vis=00	!LO:N:vis=00	!	!	!	!
0.r	0.r	2.r	2.r	4ff\	.
.	.	.	.	4ff\	.
.	.	.	.	4ff\	.
=21	=21	=21	=21	=21	=21
.	.	4B-\	4d/	2bb-\	.
.	.	4B-\	4d/	.	.
.	.	4B-\	4d/	4b-\	.
=22	=22	=22	=22	=22	=22
.	.	4F\	4c/	8cc\L	.
.	.	.	.	8dd\	.
.	.	4r	4r	8ee-\	.
.	.	.	.	8ff\	.
.	.	4e-\	4cc\	8gg\	.
.	.	.	.	8ee-\J	.
!	!	!LO:LB:g=original	!	!	!
=23	=23	=23	=23	=23	=23
.	.	4f\	4b-\	4dd\	.
.	.	8F\L	4a\	4cc\	.
.	.	8E-\	.	.	.
.	.	8D\	4r	4r	.
.	.	8C\J	.	.	.
=24	=24	=24	=24	=24	=24
.	.	.	.	16qqeeX/	.
!LO:N:vis=00	!LO:N:vis=0	!	!	!	!
0.r	1.r	4BB-/	2.r	4ff\	.
.	.	4r	.	4ff\	.
.	.	4r	.	4ff\	.
!	!	!	!	!	!
=25	=25	=25	=25	=25	=25
.	.	4B-\	4d/	2bb-\	.
.	.	4B-\	4d/	.	.
.	.	4B-\	4d/	4b-\	.
!	!	!	!	!LO:LB:g=original	!
=26	=26	=26	=26	=26	=26
.	2.r	4F\	4c/	8cc\L	.
.	.	.	.	8gg\	.
.	.	4r	4r	8ff\	.
.	.	.	.	8ee-\	.
.	.	4A\	4e-/	8dd\	.
.	.	.	.	8cc\J	.
!	!	!	!LO:LB:g=original	!	!
=27	=27	=27	=27	=27	=27
.	2r	4B-\	2e-/	2cc\	.
.	.	4F\	.	.	.
!	!	!LO:TX:t=P:problem:jakaś ósemka pod pięciolinią	!	!LO:TX:t=P:problem:jakaś ósemka pod pięciolinią	!
.	4r	4BB-/	4d/	4b-\	.
=28:|!|:	=28:|!|:	=28:|!|:	=28:|!|:	=28:|!|:	=28:|!|:
*>D	*>D	*>D	*>D	*>D	*
8f/L	8f/L	8f\L	8f/L	8ff\L	f
8f/	8f/	8f\	8f/	8ff\	.
8d/	8d/	8d\	8d/	8dd\	.
8d/	8d/	8d\	8d/	8dd\	.
8B-/	8B-/	8B-\	8B-/	8b-\	.
8B-/J	8B-/J	8B-\J	8B-/J	8b-\J	.
=29	=29	=29	=29	=29	=29
2F/	2f/	4F\	4r	16f/LL	p
.	.	.	.	16g/	.
.	.	.	.	16a/	.
.	.	.	.	16b-/JJ	.
.	.	4A\	4c/	16cc\LL	.
.	.	.	.	16dd\	.
.	.	.	.	16ee-\	.
.	.	.	.	16cc\JJ	.
4r	4r	4B-\	4d/	4dd\	.
!	!	!LO:LB:g=original	!	!LO:LB:g=original	!
=30	=30	=30	=30	=30	=30
8f/L	8f/L	8f\L	8f/L	8ff\L	f
8f/	8f/	8f\	8f/	8ff\	.
8d/	8d/	8d\	8d/	8dd\	.
8d/	8d/	8d\	8d/	8dd\	.
8B-/	8B-/	8B-\	8B-/	8b-\	.
8B-/J	8B-/J	8B-\J	8B-/J	8b-\J	.
=31	=31	=31	=31	=31	=31
2F/	2f/	2F\	4F/	2f/	.
.	.	.	4r	.	.
4r	4r	4r	4r	4r	.
=32	=32	=32	=32	=32	=32
.	.	.	.	8qqeeX/	.
!LO:N:vis=00	!LO:N:vis=00	!	!	!	!
0.r	0.r	2.r	2.r	4ff\	.
.	.	.	.	4ff\	.
.	.	.	.	4ff\	.
=33	=33	=33	=33	=33	=33
.	.	4B-\	4d/	2bb-\	.
.	.	4B-\	4d/	.	.
.	.	4B-\	4d/	4b-\	.
=34	=34	=34	=34	=34	=34
.	.	4F\	4c/	8cc\L	.
.	.	.	.	8gg\	.
.	.	4r	4r	8ff\	.
.	.	.	.	8ee-\	.
.	.	4A\	4e-/	8dd\	.
.	.	.	.	8cc\J	.
=35	=35	=35	=35	=35	=35
.	.	4B-\	2e-/	2cc\	.
.	.	4F\	.	.	.
!	!	!LO:TX:b:i:t=M&colon; Da \nCapo	!	!	!
!	!	!LO:TX:t=P:problem:jakaś ósemka pod pięciolinią	!LO:TX:t=P:problem:jakaś ósemka pod pięciolinią	!LO:TX:b:i:t=M&colon; Da Capo	!
.	.	4BB-/	4d/	4b-\	.
=:|!	=:|!	=:|!	=:|!	=:|!	=:|!
*-	*-	*-	*-	*-	*-
!!!system-decoration: [(s1,s2,s3)][(s4,s5)]
!!!RDF**dynam: f = fo
!!!AIN: 1 clars 2 cor 1 empty 1 fagot
!!!ENC: Mateusz Solarz
!!!END: 2021-06-18
!!!EED: Andrzej Borzym
!!!EST: 2021-06-19
